images/icons/close-popover.svg

<svg width="20" height="20" viewBox="0 0 20 20" fill="none" xmlns="http://www.w3.org/2000/svg">
  <path fill-rule="evenodd" clip-rule="evenodd"
        d="M10 20C4.47715 20 0 15.5228 0 10C0 4.47715 4.47715 0 10 0C15.5228 0 20 4.47715 20 10C20 15.5228 15.5228 20 10 20ZM10 18.1818C14.5187 18.1818 18.1818 14.5187 18.1818 10C18.1818 5.48131 14.5187 1.81818 10 1.81818C5.48131 1.81818 1.81818 5.48131 1.81818 10C1.81818 14.5187 5.48131 18.1818 10 18.1818ZM7.00646 14.2792L10 11.2856L12.9935 14.2792L14.2792 12.9935L11.2856 10L14.2792 7.00646L12.9935 5.72081L10 8.71435L7.00646 5.72081L5.72081 7.00646L8.71435 10L5.72081 12.9935L7.00646 14.2792Z"
        fill="#C4C4C4"/>
</svg>

<svg width="20" height="20" fill="none" xmlns="http://www.w3.org/2000/svg"><path fill-rule="evenodd" clip-rule="evenodd" d="M10 20a10 10 0 1 1 0-20 10 10 0 0 1 0 20Zm0-1.82a8.18 8.18 0 1 0 0-16.36 8.18 8.18 0 0 0 0 16.36Zm-3-3.9 3-3 3 3 1.28-1.29-3-2.99 3-3-1.29-1.28-2.99 3-3-3-1.28 1.29 3 2.99-3 3 1.29 1.28Z" fill="#C4C4C4"/></svg>
